svg/fluentui-system-icons/ic_fluent_scan_dash_48_regular.svg

<svg width="48" height="48" viewBox="0 0 48 48" fill="none" xmlns="http://www.w3.org/2000/svg">
<path d="M12.25 6C8.79822 6 6 8.79822 6 12.25V17.75C6 18.4404 6.55964 19 7.25 19C7.94036 19 8.5 18.4404 8.5 17.75V12.25C8.5 10.1789 10.1789 8.5 12.25 8.5H17.75C18.4404 8.5 19 7.94036 19 7.25C19 6.55964 18.4404 6 17.75 6H12.25ZM30.25 6C29.5596 6 29 6.55964 29 7.25C29 7.94036 29.5596 8.5 30.25 8.5H35.75C37.8211 8.5 39.5 10.1789 39.5 12.25V17.75C39.5 18.4404 40.0596 19 40.75 19C41.4404 19 42 18.4404 42 17.75V12.25C42 8.79822 39.2018 6 35.75 6H30.25ZM8.5 30.25C8.5 29.5596 7.94036 29 7.25 29C6.55964 29 6 29.5596 6 30.25V35.75C6 39.2018 8.79822 42 12.25 42H17.75C18.4404 42 19 41.4404 19 40.75C19 40.0596 18.4404 39.5 17.75 39.5H12.25C10.1789 39.5 8.5 37.8211 8.5 35.75V30.25ZM42 30.25C42 29.5596 41.4404 29 40.75 29C40.0596 29 39.5 29.5596 39.5 30.25V35.75C39.5 37.8211 37.8211 39.5 35.75 39.5H30.25C29.5596 39.5 29 40.0596 29 40.75C29 41.4404 29.5596 42 30.25 42H35.75C39.2018 42 42 39.2018 42 35.75V30.25ZM14 22.75C13.3096 22.75 12.75 23.3096 12.75 24C12.75 24.6904 13.3096 25.25 14 25.25H34C34.6904 25.25 35.25 24.6904 35.25 24C35.25 23.3096 34.6904 22.75 34 22.75H14Z" fill="#212121"/>
</svg>

<svg xmlns="http://www.w3.org/2000/svg" width="48" height="48"><path d="M12.25 6A6.25 6.25 0 0 0 6 12.25v5.5a1.25 1.25 0 1 0 2.5 0v-5.5a3.75 3.75 0 0 1 3.75-3.75h5.5a1.25 1.25 0 1 0 0-2.5h-5.5Zm18 0a1.25 1.25 0 1 0 0 2.5h5.5a3.75 3.75 0 0 1 3.75 3.75v5.5a1.25 1.25 0 1 0 2.5 0v-5.5A6.25 6.25 0 0 0 35.75 6h-5.5ZM8.5 30.25a1.25 1.25 0 1 0-2.5 0v5.5A6.25 6.25 0 0 0 12.25 42h5.5a1.25 1.25 0 1 0 0-2.5h-5.5a3.75 3.75 0 0 1-3.75-3.75v-5.5Zm33.5 0a1.25 1.25 0 1 0-2.5 0v5.5a3.75 3.75 0 0 1-3.75 3.75h-5.5a1.25 1.25 0 1 0 0 2.5h5.5A6.25 6.25 0 0 0 42 35.75v-5.5Zm-28-7.5a1.25 1.25 0 1 0 0 2.5h20a1.25 1.25 0 1 0 0-2.5H14Z"/></svg>
